X:18
T:Sher
Z:Jack Campin, http://www.campin.me.uk
F:http://www.campin.me.uk/Music/EdinburghKlezmer.abc
C:Abe Schwartz, 1920
M:2/4
L:1/16
Q:1/4=116
K:GDor ^c % misheberakh
A2B2 c4-|c2Bc B2A2|c2d2 e4- |e2de d2c2|
A2B2 c4-|c2Bc B2A2|FGAB cdcB|BAA2 z4 :|
%
d4 d3B             |cdB2 A4  |C2D2 E=FDF|E4    A4  |
d4 c3B             |cdBz ABGz|FGAB cdcB |BAA2- AzAz|
d4 c3B             |cdB2 A4  |c2d2 e=fdf|e2z2  A2z2|
d2z2 c/d/c/d/ c/d/B|BcA2 ABG2|FGAB cdcB |BAA2  z2 ||
%
K:DMin ^G
A2|D8   |F8   |GAGF GAGF|FEED EFD2 |
   D6 F2|A4 z4|GAGF GAGF|FEED D2z2:|
